X: 2
T: The Bag Of Spuds
R: reel
M: 4/4
L: 1/8
K: Gmaj
Bd d2 Beed|BddB ~A2 GA|Bd d2 Beed|gabg ~a2 g2:||:gabg eaab|gabg e2d2|gabg eaab|gedB ~A2G2:|


Tune 391	Setting 13231

